**harmony	**harte	**kern	**silbe	**rhyme	**timestamp	**phrase
*M4/4	*M4/4	*ICvox	*	*	*	*
*	*	*VRlead	*	*	*	*
*	*	*Hstimme	*	*	*	*
*D:	*D:	*D:	*	*	*	*
*	*	*M4/4	*	*	*	*
*	*	*clefG2	*	*	*	*
1r;	1r	r;	.	.	0	.
=1	=1	=1	=1	=1	=1	=1
*>Letter>A	*>Letter>A	*>Letter>A	*>Letter>A	*>Letter>A	*>Letter>A	*>Letter>A
*>Label>Intro	*>Label>Intro	*>Label>Intro	*>Label>Intro	*>Label>Intro	*>Label>Intro	*>Label>Intro
2AM	A:maj	1r	.	.	0.395	newline
2GM	G:maj	.	.	.	1.107	.
=2	=2	=2	=2	=2	=2	=2
1DM	D:maj	1r	.	.	1.819	.
=3	=3	=3	=3	=3	=3	=3
2AM	A:maj	1r	.	.	3.243	.
2DM	D:maj	.	.	.	3.955	.
=4	=4	=4	=4	=4	=4	=4
1GM	G:maj	1r	.	.	4.667	.
=5	=5	=5	=5	=5	=5	=5
2GM	G:maj	1r	.	.	6.092	newline
2AM	A:maj	.	.	.	6.81	.
=6	=6	=6	=6	=6	=6	=6
1DM	D:maj	1r	.	.	7.528	.
=7	=7	=7	=7	=7	=7	=7
2GM	G:maj	1r	.	.	8.963	.
2AM	A:maj	.	.	.	9.681	.
=8	=8	=8	=8	=8	=8	=8
1DM	D:maj	1r	.	.	10.399	newline
=9	=9	=9	=9	=9	=9	=9
1DM	D:maj	1r	.	.	11.781	.
=10	=10	=10	=10	=10	=10	=10
*>Letter>B	*>Letter>B	*>Letter>B	*>Letter>B	*>Letter>B	*>Letter>B	*>Letter>B
*>Label>Verse	*>Label>Verse	*>Label>Verse	*>Label>Verse	*>Label>Verse	*>Label>Verse	*>Label>Verse
1DM	D:maj	8f#	Mid-	.	13.163	newline
.	.	[8f#	-night	A	.	.
.	.	2f#_	_	.	.	.
.	.	8f#]	_	.	.	.
.	.	8e	_	.	.	.
=11	=11	=11	=11	=11	=11	=11
1DM	D:maj	4d	_	.	14.575	.
.	.	4r	.	.	.	.
.	.	8r	.	.	.	.
.	.	8d	and	.	.	.
.	.	8d	I'm	.	.	.
.	.	8d	a-	.	.	.
=12	=12	=12	=12	=12	=12	=12
1DM	D:maj	8a	-wait-	.	15.986	.
.	.	8a	-ing	.	.	.
.	.	8a	on	.	.	.
.	.	8a	the	.	.	.
.	.	4a	twelve-	.	.	.
.	.	4f#	-oh-	.	.	.
=13	=13	=13	=13	=13	=13	=13
1DM	D:maj	4d	-five	A	17.398	.
.	.	4r	.	.	.	.
.	.	4r	.	.	.	.
.	.	8r	.	.	.	.
.	.	[8f#	Hop-	.	.	.
=14	=14	=14	=14	=14	=14	=14
1DM	D:maj	8f#]	_	.	18.809	newline
.	.	8f#	-ing	.	.	.
.	.	8f#	it-	.	.	.
.	.	8f#	-'ll	.	.	.
.	.	8f#	take	.	.	.
.	.	8f#	me	.	.	.
.	.	8f#	just	.	.	.
.	.	8f#	a	.	.	.
=15	=15	=15	=15	=15	=15	=15
1DM	D:maj	8f#	litt-	.	20.224	.
.	.	8f#	-le	.	.	.
.	.	8f#	far-	.	.	.
.	.	8f#	-ther	.	.	.
.	.	4e	down	.	.	.
.	.	8d	the	.	.	.
.	.	[8d	line	A	.	.
=16	=16	=16	=16	=16	=16	=16
1GM	G:maj	4d]	_	.	21.638	.
.	.	4r	.	.	.	.
.	.	2r	.	.	.	.
=17	=17	=17	=17	=17	=17	=17
1GM	G:maj	1r	.	.	23.053	.
=18	=18	=18	=18	=18	=18	=18
1DM	D:maj	8f#	Moon-	.	24.467	newline
.	.	[8f#	-light	A	.	.
.	.	2f#_	_	.	.	.
.	.	8f#]	_	.	.	.
.	.	8e	_	.	.	.
=19	=19	=19	=19	=19	=19	=19
1DM	D:maj	4d	_	.	25.899	.
.	.	4r	.	.	.	.
.	.	8r	.	.	.	.
.	.	8d	You're	.	.	.
.	.	8d	just	.	.	.
.	.	8d	a	.	.	.
=20	=20	=20	=20	=20	=20	=20
1DM	D:maj	8a	heart-	.	27.332	.
.	.	4.a	-ache	.	.	.
.	.	4a	in	.	.	.
.	.	4f#	dis-	.	.	.
=21	=21	=21	=21	=21	=21	=21
1DM	D:maj	4d	-guise	A	28.764	.
.	.	4r	.	.	.	.
.	.	4r	.	.	.	.
.	.	8d	Won't	.	.	.
.	.	8d	you	.	.	.
=22	=22	=22	=22	=22	=22	=22
1DM	D:maj	8f#	keep	.	30.196	newline
.	.	8f#	my	.	.	.
.	.	8f#	heart	.	.	.
.	.	8f#	from	.	.	.
.	.	8f#	break-	.	.	.
.	.	8f#	-ing	.	.	.
.	.	8f#	if	.	.	.
.	.	8f#	it's	.	.	.
=23	=23	=23	=23	=23	=23	=23
1DM	D:maj	8f#	on-	.	31.607	.
.	.	8f#	-ly	.	.	.
.	.	8f#	for	.	.	.
.	.	8f#	a	.	.	.
.	.	8f#	ver-	.	.	.
.	.	8e	-y	.	.	.
.	.	4d	short	.	.	.
=24	=24	=24	=24	=24	=24	=24
1GM	G:maj	4d	time	A	33.017	.
.	.	4r	.	.	.	.
.	.	2r	.	.	.	.
=25	=25	=25	=25	=25	=25	=25
1GM	G:maj	1r	.	.	34.428	.
=26	=26	=26	=26	=26	=26	=26
*>Letter>A	*>Letter>A	*>Letter>A	*>Letter>A	*>Letter>A	*>Letter>A	*>Letter>A
*>Label>Chorus	*>Label>Chorus	*>Label>Chorus	*>Label>Chorus	*>Label>Chorus	*>Label>Chorus	*>Label>Chorus
2AM	A:maj	4a	Playin'	.	35.838	newline
.	.	8a	with	.	.	.
.	.	8a	the	.	.	.
.	.	4g	queen	.	.	.
2GM	G:maj	8g	of	.	36.547	.
.	.	[8f#	hearts	B	.	.
=27	=27	=27	=27	=27	=27	=27
1DM	D:maj	8f#]	_	.	37.257	.
.	.	8r	.	.	.	.
.	.	4r	.	.	.	.
.	.	2r	.	.	.	.
=28	=28	=28	=28	=28	=28	=28
2AM	A:maj	8a	Know-	.	38.676	.
.	.	8a	-in'	.	.	.
.	.	8a	it	.	.	.
.	.	8a	ain't	.	.	.
2DM	D:maj	8d	reall-	.	39.385	.
.	.	4d	-y	.	.	.
.	.	[8g	smart	B	.	.
=29	=29	=29	=29	=29	=29	=29
1GM	G:maj	8g]	_	.	40.095	.
.	.	8r	.	.	.	.
.	.	2r	.	.	.	.
.	.	8r	.	.	.	.
.	.	8f#	The	.	.	.
=30	=30	=30	=30	=30	=30	=30
2GM	G:maj	8g	Jok-	.	41.514	newline
.	.	8g	-er	.	.	.
.	.	8g	ain't	.	.	.
.	.	8g	the	.	.	.
2AM	A:maj	4a	on-	.	42.221	.
.	.	8a	-ly	.	.	.
.	.	[8a	fool	C	.	.
=31	=31	=31	=31	=31	=31	=31
1DM	D:maj	4a]	_	.	42.927	.
.	.	4f#	_	.	.	.
.	.	4d	_	.	.	.
.	.	8r	.	.	.	.
.	.	8d	who'd	.	.	.
=32	=32	=32	=32	=32	=32	=32
2GM	G:maj	4g	do	.	44.341	.
.	.	8g	an-	.	.	.
.	.	8g	-y-	.	.	.
2AM	A:maj	4c#	-thing	.	45.047	.
.	.	8c#	for	.	.	.
.	.	[8d	you	C	.	.
=33	=33	=33	=33	=33	=33	=33
1DM	D:maj	4d]	_	.	45.754	.
.	.	4r	.	.	.	.
.	.	2r	.	.	.	.
=34	=34	=34	=34	=34	=34	=34
2AM	A:maj	4a	Layin'	.	47.168	newline
.	.	8a	out	.	.	.
.	.	8a	a-	.	.	.
2GM	G:maj	4g	-no-	.	47.876	.
.	.	8g	-ther	.	.	.
.	.	[8g	lie	A	.	.
=35	=35	=35	=35	=35	=35	=35
1DM	D:maj	8g]	_	.	48.584	.
.	.	4f#	_	.	.	.
.	.	8r	.	.	.	.
.	.	2r	.	.	.	.
=36	=36	=36	=36	=36	=36	=36
2AM	A:maj	8a	Think-	.	50.001	.
.	.	8a	-in'	.	.	.
.	.	8a	'bout	.	.	.
.	.	8a	a	.	.	.
2DM	D:maj	4d	life	.	50.71	.
.	.	8d	of	.	.	.
.	.	[8g	crime	A	.	.
=37	=37	=37	=37	=37	=37	=37
1GM	G:maj	8g]	_	.	51.418	.
.	.	8r	.	.	.	.
.	.	2r	.	.	.	.
.	.	8r	.	.	.	.
.	.	8f#	'Cause	.	.	.
=38	=38	=38	=38	=38	=38	=38
2GM	G:maj	4g	that's	.	52.835	newline
.	.	8g	what	.	.	.
.	.	8g	I'll	.	.	.
2AM	A:maj	4a	have	.	53.546	.
.	.	8a	to	.	.	.
.	.	[8a	do	C	.	.
=39	=39	=39	=39	=39	=39	=39
1DM	D:maj	4a]	_	.	54.257	.
.	.	4f#	_	.	.	.
.	.	4d	_	.	.	.
.	.	8r	.	.	.	.
.	.	8d	to	.	.	.
=40	=40	=40	=40	=40	=40	=40
2GM	G:maj	4g	keep	.	55.68	.
.	.	8g	me	.	.	.
.	.	8g	a-	.	.	.
2AM	A:maj	4c#	-way	.	56.391	.
.	.	8c#	from	.	.	.
.	.	[8d	you	C	.	.
=41	=41	=41	=41	=41	=41	=41
1DM	D:maj	4d]	_	.	57.102	newline
.	.	4r	.	.	.	.
.	.	2r	.	.	.	.
=42	=42	=42	=42	=42	=42	=42
1DM	D:maj	1r	.	.	58.525	.
=43	=43	=43	=43	=43	=43	=43
*>Letter>B	*>Letter>B	*>Letter>B	*>Letter>B	*>Letter>B	*>Letter>B	*>Letter>B
*>Label>Verse	*>Label>Verse	*>Label>Verse	*>Label>Verse	*>Label>Verse	*>Label>Verse	*>Label>Verse
1DM	D:maj	8f#	Hon-	.	59.947	newline
.	.	[8f#	-ey	.	.	.
.	.	2f#_	_	.	.	.
.	.	8f#]	_	.	.	.
.	.	8e	_	.	.	.
=44	=44	=44	=44	=44	=44	=44
1DM	D:maj	4d	_	.	61.367	.
.	.	4r	.	.	.	.
.	.	8r	.	.	.	.
.	.	4r	.	.	.	.
.	.	8d	You	.	.	.
=45	=45	=45	=45	=45	=45	=45
1DM	D:maj	8a	know	.	62.786	.
.	.	4.a	it	.	.	.
.	.	4a	makes	.	.	.
.	.	4f#	you	.	.	.
=46	=46	=46	=46	=46	=46	=46
1DM	D:maj	4d	mad	D	64.206	.
.	.	4r	.	.	.	.
.	.	4r	.	.	.	.
.	.	8e	Why	.	.	.
.	.	8d	is	.	.	.
=47	=47	=47	=47	=47	=47	=47
1DM	D:maj	8f#	ev-	.	65.626	newline
.	.	8f#	-ery-	.	.	.
.	.	8f#	-bod-	.	.	.
.	.	8f#	-y	.	.	.
.	.	8f#	tell-	.	.	.
.	.	8f#	-in	.	.	.
.	.	8f#	ev-	.	.	.
.	.	8f#	-ery-	.	.	.
=48	=48	=48	=48	=48	=48	=48
1DM	D:maj	8f#	-bod-	.	67.035	.
.	.	8f#	-y	.	.	.
.	.	4a	what	.	.	.
.	.	8f#	you	.	.	.
.	.	4e	have	.	.	.
.	.	[8d	done	E	.	.
=49	=49	=49	=49	=49	=49	=49
1GM	G:maj	4d]	_	.	68.444	.
.	.	4r	.	.	.	.
.	.	2r	.	.	.	.
=50	=50	=50	=50	=50	=50	=50
1GM	G:maj	1r	.	.	69.853	.
=51	=51	=51	=51	=51	=51	=51
1DM	D:maj	8f#	Bab-	.	71.263	newline
.	.	[8f#	-y	.	.	.
.	.	2f#_	_	.	.	.
.	.	8f#]	_	.	.	.
.	.	8e	_	.	.	.
=52	=52	=52	=52	=52	=52	=52
1DM	D:maj	4d	_	.	72.684	.
.	.	4r	.	.	.	.
.	.	8r	.	.	.	.
.	.	4r	.	.	.	.
.	.	8d	I	.	.	.
=53	=53	=53	=53	=53	=53	=53
1DM	D:maj	8f#	know	.	74.105	.
.	.	4.f#	it	.	.	.
.	.	4f#	makes	.	.	.
.	.	4e	you	.	.	.
=54	=54	=54	=54	=54	=54	=54
1DM	D:maj	4d	sad	D	75.527	.
.	.	4r	.	.	.	.
.	.	8r	.	.	.	.
.	.	8d	But	.	.	.
.	.	8e	when	.	.	.
.	.	8d	they're	.	.	.
=55	=55	=55	=55	=55	=55	=55
1DM	D:maj	8f#	hand-	.	76.948	newline
.	.	8f#	-ing	.	.	.
.	.	8f#	out	.	.	.
.	.	8f#	the	.	.	.
.	.	8f#	heart-	.	.	.
.	.	8f#	-aches	.	.	.
.	.	8f#	you	.	.	.
.	.	[8f#	know	.	.	.
=56	=56	=56	=56	=56	=56	=56
1DM	D:maj	8f#]	_	.	78.362	.
.	.	8f#	you	.	.	.
.	.	8f#	got	.	.	.
.	.	8f#	to	.	.	.
.	.	4e	have	.	.	.
.	.	8d	you	.	.	.
.	.	[8d	some	E	.	.
=57	=57	=57	=57	=57	=57	=57
1GM	G:maj	8d]	_	.	79.776	.
.	.	8r	.	.	.	.
.	.	4r	.	.	.	.
.	.	2r	.	.	.	.
=58	=58	=58	=58	=58	=58	=58
1GM	G:maj	1r	.	.	81.19	.
=59	=59	=59	=59	=59	=59	=59
*>Letter>A	*>Letter>A	*>Letter>A	*>Letter>A	*>Letter>A	*>Letter>A	*>Letter>A
*>Label>Chorus	*>Label>Chorus	*>Label>Chorus	*>Label>Chorus	*>Label>Chorus	*>Label>Chorus	*>Label>Chorus
2AM	A:maj	4a	Playin'	.	82.604	newline
.	.	8a	with	.	.	.
.	.	8a	the	.	.	.
.	.	4g	queen	.	.	.
2GM	G:maj	8g	of	.	83.308	.
.	.	[8f#	hearts	B	.	.
=60	=60	=60	=60	=60	=60	=60
1DM	D:maj	8f#]	_	.	84.011	.
.	.	8r	.	.	.	.
.	.	4r	.	.	.	.
.	.	2r	.	.	.	.
=61	=61	=61	=61	=61	=61	=61
2AM	A:maj	8a	Know-	.	85.418	.
.	.	8a	-in'	.	.	.
.	.	8a	it	.	.	.
.	.	8a	ain't	.	.	.
2DM	D:maj	8d	reall-	.	86.122	.
.	.	4d	-y	.	.	.
.	.	[8g	smart	B	.	.
=62	=62	=62	=62	=62	=62	=62
1GM	G:maj	8g]	_	.	86.825	.
.	.	8r	.	.	.	.
.	.	2r	.	.	.	.
.	.	4r	.	.	.	.
=63	=63	=63	=63	=63	=63	=63
2GM	G:maj	8g	Jo-	.	88.232	newline
.	.	8g	-ker	.	.	.
.	.	8g	ain't	.	.	.
.	.	8g	the	.	.	.
2AM	A:maj	4a	on-	.	88.951	.
.	.	8a	-ly	.	.	.
.	.	[8a	fool	C	.	.
=64	=64	=64	=64	=64	=64	=64
1DM	D:maj	4a]	_	.	89.67	.
.	.	4f#	_	.	.	.
.	.	4d	_	.	.	.
.	.	8r	.	.	.	.
.	.	8d	who'd	.	.	.
=65	=65	=65	=65	=65	=65	=65
2GM	G:maj	4g	do	.	91.107	.
.	.	8g	an-	.	.	.
.	.	8g	-y-	.	.	.
2AM	A:maj	4c#	-thing	.	91.826	.
.	.	8c#	for	.	.	.
.	.	[8d	you	C	.	.
=66	=66	=66	=66	=66	=66	=66
1DM	D:maj	4d]	_	.	92.545	.
.	.	4r	.	.	.	.
.	.	2r	.	.	.	.
=67	=67	=67	=67	=67	=67	=67
2AM	A:maj	4a	Layin'	.	93.983	newline
.	.	8a	out	.	.	.
.	.	8a	a	.	.	.
2GM	G:maj	4g	no-	.	94.688	.
.	.	8g	-ther	.	.	.
.	.	[8g	lie	A	.	.
=68	=68	=68	=68	=68	=68	=68
1DM	D:maj	8g]	_	.	95.393	.
.	.	4f#	_	.	.	.
.	.	8r	.	.	.	.
.	.	2r	.	.	.	.
=69	=69	=69	=69	=69	=69	=69
2AM	A:maj	8a	Think-	.	96.803	.
.	.	8a	-in'	.	.	.
.	.	8a	'bout	.	.	.
.	.	8a	a	.	.	.
2DM	D:maj	4d	life	.	97.508	.
.	.	8d	of	.	.	.
.	.	[8g	crime	A	.	.
=70	=70	=70	=70	=70	=70	=70
1GM	G:maj	8g]	_	.	98.213	.
.	.	8r	.	.	.	.
.	.	2r	.	.	.	.
.	.	8r	.	.	.	.
.	.	8f#	'Cause	.	.	.
=71	=71	=71	=71	=71	=71	=71
2GM	G:maj	4g	that's	.	99.623	newline
.	.	8g	what	.	.	.
.	.	8g	I'll	.	.	.
2AM	A:maj	4a	have	.	100.334	.
.	.	8a	to	.	.	.
.	.	[8a	do	C	.	.
=72	=72	=72	=72	=72	=72	=72
1DM	D:maj	4a]	_	.	101.045	.
.	.	4f#	_	.	.	.
.	.	4d	_	.	.	.
.	.	8r	.	.	.	.
.	.	8d	to	.	.	.
=73	=73	=73	=73	=73	=73	=73
2GM	G:maj	4g	keep	.	102.467	.
.	.	8g	me	.	.	.
.	.	8g	a-	.	.	.
2AM	A:maj	4c#	-way	.	103.178	.
.	.	8c#	from	.	.	.
.	.	[8d	you	C	.	.
=74	=74	=74	=74	=74	=74	=74
1DM	D:maj	4d]	_	.	103.889	.
.	.	4r	.	.	.	.
.	.	2r	.	.	.	.
=75	=75	=75	=75	=75	=75	=75
*>Letter>A2	*>Letter>A2	*>Letter>A2	*>Letter>A2	*>Letter>A2	*>Letter>A2	*>Letter>A2
*>Label>Solo	*>Label>Solo	*>Label>Solo	*>Label>Solo	*>Label>Solo	*>Label>Solo	*>Label>Solo
*E:	*E:	*E:	*	*	*E:	*E:
2BM	B:maj	1r	.	.	105.311	newline
2AM	A:maj	.	.	.	106.013	.
=76	=76	=76	=76	=76	=76	=76
1EM	E:maj	1r	.	.	106.714	.
=77	=77	=77	=77	=77	=77	=77
2BM	B:maj	1r	.	.	108.117	.
2EM	E:maj	.	.	.	108.819	.
=78	=78	=78	=78	=78	=78	=78
1AM	A:maj	1r	.	.	109.52	.
=79	=79	=79	=79	=79	=79	=79
2AM	A:maj	1r	.	.	110.923	newline
2BM	B:maj	.	.	.	111.641	.
=80	=80	=80	=80	=80	=80	=80
1EM	E:maj	1r	.	.	112.358	.
=81	=81	=81	=81	=81	=81	=81
2AM	A:maj	1r	.	.	113.793	.
2BM	B:maj	.	.	.	114.51	.
=82	=82	=82	=82	=82	=82	=82
1EM	E:maj	1r	.	.	115.228	.
=83	=83	=83	=83	=83	=83	=83
2AM	A:maj	1r	.	.	116.663	newline
2BM	B:maj	.	.	.	117.361	.
=84	=84	=84	=84	=84	=84	=84
1EM	E:maj	1r	.	.	118.06	.
=85	=85	=85	=85	=85	=85	=85
*>Letter>B	*>Letter>B	*>Letter>B	*>Letter>B	*>Letter>B	*>Letter>B	*>Letter>B
*>Label>Verse	*>Label>Verse	*>Label>Verse	*>Label>Verse	*>Label>Verse	*>Label>Verse	*>Label>Verse
*D:	*D:	*D:	*	*	*D:	*D:
1DM	D:maj	8e	Lo-	.	119.456	newline
.	.	[8f#	-vers	.	.	.
.	.	2f#_	_	.	.	.
.	.	8f#]	_	.	.	.
.	.	8e	_	.	.	.
=86	=86	=86	=86	=86	=86	=86
1DM	D:maj	4d	_	.	120.879	.
.	.	4r	.	.	.	.
.	.	8r	.	.	.	.
.	.	4r	.	.	.	.
.	.	8d	I	.	.	.
=87	=87	=87	=87	=87	=87	=87
1DM	D:maj	8f#	know	.	122.301	.
.	.	4.f#	you've	.	.	.
.	.	4f#	had	.	.	.
.	.	4e	a	.	.	.
=88	=88	=88	=88	=88	=88	=88
1DM	D:maj	4d	few	C	123.723	.
.	.	4r	.	.	.	.
.	.	8r	.	.	.	.
.	.	8d	But	.	.	.
.	.	8e	hide	.	.	.
.	.	8d	your	.	.	.
=89	=89	=89	=89	=89	=89	=89
1DM	D:maj	8f#	heart	.	125.146	newline
.	.	8f#	be-	.	.	.
.	.	8f#	-neath	.	.	.
.	.	8f#	the	.	.	.
.	.	8f#	co-	.	.	.
.	.	8f#	-vers	.	.	.
.	.	8f#	and	.	.	.
.	.	[8f#	tell	.	.	.
=90	=90	=90	=90	=90	=90	=90
1DM	D:maj	8f#]	_	.	126.555	.
.	.	8f#	'em	.	.	.
.	.	8f#	they're	.	.	.
.	.	8f#	the	.	.	.
.	.	4e	on-	.	.	.
.	.	8d	-ly	.	.	.
.	.	[8d	one	F	.	.
=91	=91	=91	=91	=91	=91	=91
1GM	G:maj	4d]	_	.	127.964	.
.	.	4r	.	.	.	.
.	.	2r	.	.	.	.
=92	=92	=92	=92	=92	=92	=92
1GM	G:maj	1r	.	.	129.373	.
=93	=93	=93	=93	=93	=93	=93
1DM	D:maj	8e	O-	.	130.783	newline
.	.	[8f#	-thers	.	.	.
.	.	2f#_	_	.	.	.
.	.	8f#]	_	.	.	.
.	.	8e	_	.	.	.
=94	=94	=94	=94	=94	=94	=94
1DM	D:maj	4d	_	.	132.207	.
.	.	4r	.	.	.	.
.	.	8r	.	.	.	.
.	.	8d	They	.	.	.
.	.	8e	just	.	.	.
.	.	8d	know	.	.	.
=95	=95	=95	=95	=95	=95	=95
1DM	D:maj	8f#	what	.	133.63	.
.	.	4.f#	I'm	.	.	.
.	.	4f#	go-	.	.	.
.	.	4e	-ing	.	.	.
=96	=96	=96	=96	=96	=96	=96
1DM	D:maj	4d	through	C	135.054	.
.	.	4r	.	.	.	.
.	.	8r	.	.	.	.
.	.	8d	And	.	.	.
.	.	8e	it's	.	.	.
.	.	8d	a-	.	.	.
=97	=97	=97	=97	=97	=97	=97
1DM	D:maj	8f#	-hard	.	136.478	newline
.	.	8f#	to	.	.	.
.	.	8f#	be	.	.	.
.	.	8f#	a	.	.	.
.	.	8f#	lo-	.	.	.
.	.	8f#	-ver	.	.	.
.	.	8f#	when	.	.	.
.	.	8f#	you	.	.	.
=98	=98	=98	=98	=98	=98	=98
1DM	D:maj	8f#	say	.	137.89	.
.	.	8f#	you're	.	.	.
.	.	8f#	on-	.	.	.
.	.	8f#	-ly	.	.	.
.	.	8e	in	.	.	.
.	.	8d	it	.	.	.
.	.	8d	for	.	.	.
.	.	[8d	fun	F	.	.
=99	=99	=99	=99	=99	=99	=99
1GM	G:maj	4d]	_	.	139.301	.
.	.	4r	.	.	.	.
.	.	2r	.	.	.	.
=100	=100	=100	=100	=100	=100	=100
1GM	G:maj	1r	.	.	140.713	.
=101	=101	=101	=101	=101	=101	=101
*>Letter>A	*>Letter>A	*>Letter>A	*>Letter>A	*>Letter>A	*>Letter>A	*>Letter>A
*>Label>Chorus	*>Label>Chorus	*>Label>Chorus	*>Label>Chorus	*>Label>Chorus	*>Label>Chorus	*>Label>Chorus
2AM	A:maj	4a	Playin'	.	142.124	newline
.	.	8a	with	.	.	.
.	.	8a	the	.	.	.
.	.	4g	queen	.	.	.
2GM	G:maj	8g	of	.	142.833	.
.	.	[8f#	hearts	B	.	.
=102	=102	=102	=102	=102	=102	=102
1DM	D:maj	8f#]	_	.	143.541	.
.	.	8r	.	.	.	.
.	.	4r	.	.	.	.
.	.	2r	.	.	.	.
=103	=103	=103	=103	=103	=103	=103
2AM	A:maj	8a	Know-	.	144.958	.
.	.	8a	-in'	.	.	.
.	.	8a	it	.	.	.
.	.	8a	ain't	.	.	.
2DM	D:maj	8d	reall-	.	145.667	.
.	.	4d	-y	.	.	.
.	.	[8g	smart	B	.	.
=104	=104	=104	=104	=104	=104	=104
1GM	G:maj	8g]	_	.	146.376	.
.	.	8r	.	.	.	.
.	.	2r	.	.	.	.
.	.	8r	.	.	.	.
.	.	8f#	The	.	.	.
=105	=105	=105	=105	=105	=105	=105
2GM	G:maj	8g	Jok-	.	147.793	newline
.	.	8g	-er	.	.	.
.	.	8g	ain't	.	.	.
.	.	8g	the	.	.	.
2AM	A:maj	4a	on-	.	148.502	.
.	.	8a	-ly	.	.	.
.	.	[8a	fool	C	.	.
=106	=106	=106	=106	=106	=106	=106
1DM	D:maj	4a]	_	.	149.211	.
.	.	4f#	_	.	.	.
.	.	4d	_	.	.	.
.	.	8r	.	.	.	.
.	.	8d	who'd	.	.	.
=107	=107	=107	=107	=107	=107	=107
2GM	G:maj	4g	do	.	150.63	.
.	.	8g	an-	.	.	.
.	.	8g	-y-	.	.	.
2AM	A:maj	4c#	-thing	.	151.339	.
.	.	8c#	for	.	.	.
.	.	[8d	you	C	.	.
=108	=108	=108	=108	=108	=108	=108
1DM	D:maj	4d]	_	.	152.048	.
.	.	4r	.	.	.	.
.	.	2r	.	.	.	.
=109	=109	=109	=109	=109	=109	=109
*>Letter>A	*>Letter>A	*>Letter>A	*>Letter>A	*>Letter>A	*>Letter>A	*>Letter>A
*>Label>Chorus	*>Label>Chorus	*>Label>Chorus	*>Label>Chorus	*>Label>Chorus	*>Label>Chorus	*>Label>Chorus
*E:	*E:	*E:	*	*	*E:	*E:
1N	N	4b	Playin'	.	153.467	newline
.	.	8b	with	.	.	.
.	.	8b	the	.	.	.
.	.	4a	queen	.	.	.
.	.	8a	of	.	.	.
.	.	[8g#	hearts	B	.	.
=110	=110	=110	=110	=110	=110	=110
1N	N	8g#]	_	.	154.888	.
.	.	8r	.	.	.	.
.	.	4r	.	.	.	.
.	.	2r	.	.	.	.
=111	=111	=111	=111	=111	=111	=111
1N	N	8b	Know-	.	156.309	.
.	.	8b	-in'	.	.	.
.	.	8b	it	.	.	.
.	.	8b	ain't	.	.	.
.	.	8e	reall-	.	.	.
.	.	4e	-y	.	.	.
.	.	[8a	smart	B	.	.
=112	=112	=112	=112	=112	=112	=112
1AM	A:maj	8a]	_	.	157.73	.
.	.	8r	.	.	.	.
.	.	2r	.	.	.	.
.	.	8r	.	.	.	.
.	.	8g#	The	.	.	.
=113	=113	=113	=113	=113	=113	=113
2AM	A:maj	8a	Jo-	.	159.151	newline
.	.	8a	-ker	.	.	.
.	.	8a	ain't	.	.	.
.	.	8a	the	.	.	.
2BM	B:maj	4b	on-	.	159.859	.
.	.	8b	-ly	.	.	.
.	.	[8b	fool	C	.	.
=114	=114	=114	=114	=114	=114	=114
1EM	E:maj	4b]	_	.	160.567	.
.	.	4g#	_	.	.	.
.	.	4e	_	.	.	.
.	.	8r	.	.	.	.
.	.	8e	who'd	.	.	.
=115	=115	=115	=115	=115	=115	=115
2AM	A:maj	4a	do	.	161.984	.
.	.	8a	an-	.	.	.
.	.	8a	-y-	.	.	.
2BM	B:maj	4d#	-thing	.	162.692	.
.	.	8d#	for	.	.	.
.	.	[8e	you	C	.	.
=116	=116	=116	=116	=116	=116	=116
1EM	E:maj	4e]	_	.	163.401	.
.	.	4r	.	.	.	.
.	.	2r	.	.	.	.
=117	=117	=117	=117	=117	=117	=117
2BM	B:maj	4b	Layin'	.	164.818	newline
.	.	8b	out	.	.	.
.	.	8b	a-	.	.	.
2AM	A:maj	4a	-no-	.	165.524	.
.	.	8a	-ther	.	.	.
.	.	[8a	lie	A	.	.
=118	=118	=118	=118	=118	=118	=118
1EM	E:maj	8a]	_	.	166.231	.
.	.	4g#	_	.	.	.
.	.	8r	.	.	.	.
.	.	2r	.	.	.	.
=119	=119	=119	=119	=119	=119	=119
2BM	B:maj	8b	Think-	.	167.645	.
.	.	8b	-in'	.	.	.
.	.	8b	'bout	.	.	.
.	.	8b	a	.	.	.
2EM	E:maj	4e	life	.	168.352	.
.	.	8e	of	.	.	.
.	.	[8a	crime	A	.	.
=120	=120	=120	=120	=120	=120	=120
1AM	A:maj	8a]	_	.	169.059	.
.	.	8r	.	.	.	.
.	.	2r	.	.	.	.
.	.	8r	.	.	.	.
.	.	8g#	'Cause	.	.	.
=121	=121	=121	=121	=121	=121	=121
2AM	A:maj	4a	that's	.	170.473	newline
.	.	8a	what	.	.	.
.	.	8a	I'll	.	.	.
2BM	B:maj	4b	have	.	171.178	.
.	.	8b	to	.	.	.
.	.	[8b	do	C	.	.
=122	=122	=122	=122	=122	=122	=122
1EM	E:maj	4b]	_	.	171.883	.
.	.	4g#	_	.	.	.
.	.	4e	_	.	.	.
.	.	8r	.	.	.	.
.	.	8e	to	.	.	.
=123	=123	=123	=123	=123	=123	=123
2AM	A:maj	4a	keep	.	173.293	.
.	.	8a	me	.	.	.
.	.	8a	a-	.	.	.
2BM	B:maj	4d#	-way	.	173.998	.
.	.	8d#	from	.	.	.
.	.	[8e	you	C	.	.
=124	=124	=124	=124	=124	=124	=124
1EM	E:maj	4e]	_	.	174.703	.
.	.	4r	.	.	.	.
.	.	2r	.	.	.	.
=125	=125	=125	=125	=125	=125	=125
*>Letter>C	*>Letter>C	*>Letter>C	*>Letter>C	*>Letter>C	*>Letter>C	*>Letter>C
*>Label>Outro	*>Label>Outro	*>Label>Outro	*>Label>Outro	*>Label>Outro	*>Label>Outro	*>Label>Outro
2BM	B:maj	1r	.	.	176.114	newline
2AM	A:maj	.	.	.	176.828	.
=126	=126	=126	=126	=126	=126	=126
1EM	E:maj	1r	.	.	177.542	.
=127	=127	=127	=127	=127	=127	=127
2BM	B:maj	4b	Playin'	.	178.969	.
.	.	8b	with	.	.	.
.	.	8b	the	.	.	.
.	.	4a	queen	.	.	.
2AM	A:maj	8a	of	.	179.683	.
.	.	[8g#	hearts	B	.	.
=128	=128	=128	=128	=128	=128	=128
1EM	E:maj	8g#]	_	.	180.397	.
.	.	8r	.	.	.	.
.	.	4r	.	.	.	.
.	.	2r	.	.	.	.
=129	=129	=129	=129	=129	=129	=129
2BM	B:maj	1r	.	.	181.825	newline
2AM	A:maj	.	.	.	182.527	.
=130	=130	=130	=130	=130	=130	=130
1EM	E:maj	1r	.	.	183.23	.
=131	=131	=131	=131	=131	=131	=131
2BM	B:maj	4b	Playin'	.	184.634	.
.	.	8b	with	.	.	.
.	.	8b	the	.	.	.
.	.	4a	queen	.	.	.
2AM	A:maj	8a	of	.	185.337	.
.	.	[8g#	hearts	B	.	.
=132	=132	=132	=132	=132	=132	=132
1EM	E:maj	8g#]	_	.	186.039	.
.	.	8r	.	.	.	.
.	.	4r	.	.	.	.
.	.	2r	.	.	.	.
=133	=133	=133	=133	=133	=133	=133
*>Label>>Fadeout	*>Label>>Fadeout	*>Label>>Fadeout	*>Label>>Fadeout	*>Label>>Fadeout	*>Label>>Fadeout	*>Label>>Fadeout
2BM	B:maj	1r	.	.	187.444	newline
2AM	A:maj	.	.	.	188.155	.
=134	=134	=134	=134	=134	=134	=134
1EM	E:maj	1r	.	.	188.866	.
=135	=135	=135	=135	=135	=135	=135
2BM	B:maj	4b	Playin'	.	190.288	.
.	.	8b	with	.	.	.
.	.	8b	the	.	.	.
.	.	4a	queen	.	.	.
2AM	A:maj	8a	of	.	191	.
.	.	[8g#	hearts	.	.	.
=136	=136	=136	=136	=136	=136	=136
1EM	E:maj	8g#]	_	.	191.711	.
.	.	8r	.	.	.	.
.	.	4r	.	.	.	.
.	.	2r	.	.	.	.
=137	=137	=137	=137	=137	=137	=137
2BM	B:maj	1r	.	.	193.133	newline
2AM	A:maj	.	.	.	193.841	.
=138	=138	=138	=138	=138	=138	=138
1EM	E:maj	1r	.	.	194.549	.
=139	=139	=139	=139	=139	=139	=139
2BM	B:maj	4b	Playin'	.	195.965	.
.	.	8b	with	.	.	.
.	.	8b	the	.	.	.
.	.	4a	queen	.	.	.
2AM	A:maj	8a	of	.	196.672	.
.	.	[8g#	hearts	.	.	.
=140	=140	=140	=140	=140	=140	=140
1EM	E:maj	8g#]	_	.	197.38	.
.	.	8r	.	.	.	.
.	.	4r	.	.	.	.
.	.	2r	.	.	.	.
1r;	1r	r;	.	.	204.568	.
1r;	1r	r;	.	.	209.868	.
*-	*-	*-	*-	*-	*-	*-
!!!BillboardChartDate: 1981/07/04
!!!BillboardPeak: 2
!!!BillboardWeeksOnChart: 27
!!!COC: Juice Newton
!!!ENC: Nathaniel Condit-Schultz
!!!EST: Awating manual error checking and editing.
!!!OTL: Queen Of Hearts
!!!RDF**chordsym: original McGill chord annotation + (implied pitch class set, with bass pitch in first position)
!!!RDF**harmony: **recip + pitch class of root + harmonic quality
!!!RDF**leadinstrument: original McGill primary instrumentation annotation
!!!RDF**phrase: newline = linebreak in original McGill transcription
!!!RDF**timestamp: McGill audio timestamp in seconds
!!!RDT: 2017/01/12/
!!!SampleActualRank: 23
!!!SampleID#: 0690
!!!SampleTargetRank: 22
!!!MBID: 8ee181d3-7de6-43c9-9701-e4366562d5a1
